build/images/common/4.svg

<svg width="72" height="71" viewBox="0 0 72 71" fill="none" xmlns="http://www.w3.org/2000/svg">
<path fill-rule="evenodd" clip-rule="evenodd" d="M50.8333 34.3001C51.4333 35.3001 52.5333 35.7001 53.2333 36.7001C52.8333 38.6001 50.9333 39.0001 48.5333 38.9001C48.2333 39.1 48.3332 39.6001 47.9332 39.7001C47.5332 39.7001 47.4332 39.5001 47.1332 39.4001C47.0332 39.1 47.4332 39.2001 47.4332 39.0001C47.3332 38.7001 47.0333 38.6001 47.0333 38.2001C47.0333 37.9001 47.4332 38.0001 47.6332 37.9001C47.5332 36.3 47.7332 34.9001 47.1332 33.8001C47.4332 32.6001 46.9333 31.2001 46.8333 30.1001C47.1333 29.9001 47.3333 29.8001 47.8333 29.9001C48.3333 30.8001 48.2332 32.0001 48.4332 33.3001C49.7332 33.7001 51.9333 33.5001 52.5333 32.6001C52.1333 31.1001 50.6333 30.5001 49.5333 29.8001C49.3333 29.7001 49.3332 29.4001 49.1332 29.3001C48.3332 28.8001 47.2332 28.9001 46.9332 27.9001C47.8332 26.5001 50.0333 28.9001 51.0333 29.6001C51.6333 30.0001 52.0333 30.5001 52.7333 31.0001C53.1333 31.3001 53.5332 31.4001 53.6332 32.0001C53.8332 33.3001 52.5333 34.1001 50.8333 34.3001ZM48.5333 37.9001C49.6333 37.8 51.1333 37.8001 51.8333 37.1001C51.1333 35.9001 49.9332 35.2001 48.6332 34.6001C48.6332 35.5001 48.4333 36.9001 48.5333 37.9001Z" fill="#232178"/>
<path fill-rule="evenodd" clip-rule="evenodd" d="M61.0333 30.3C60.4333 30.4 60.3332 29.9999 59.9332 29.8999C59.2332 29.8999 58.8332 30.2999 58.1332 30.3999C57.3332 31.7999 55.8333 33.1 56.2333 35.2C56.5333 36.9 58.5333 37.5 60.2333 37C60.8333 37.8 59.3333 38.2 58.5333 38.3C56.5333 38.4 54.5332 36.8 54.8332 34.2C54.9332 32.9 56.3333 30.7 57.5333 29.7C58.1333 29.2 59.0332 28.7999 60.3332 28.8999C60.9332 29.1999 61.7333 29.8 61.0333 30.3Z" fill="#232178"/>
<path fill-rule="evenodd" clip-rule="evenodd" d="M15.9332 28.9999C16.1332 29.1999 16.2332 29.4998 16.3332 29.8998C15.8332 30.0998 15.7332 30.4998 15.0332 30.2998C14.8332 29.4998 14.9332 28.7999 15.9332 28.9999Z" fill="#232178"/>
<path fill-rule="evenodd" clip-rule="evenodd" d="M26.4332 30.5001C26.4332 31.0001 26.2332 31.2 25.9332 31.4C25.3332 31.4 25.2332 31.0001 24.9332 30.7001C25.1332 30.1001 26.0332 30.0001 26.4332 30.5001Z" fill="#232178"/>
<path fill-rule="evenodd" clip-rule="evenodd" d="M21.5332 32.5C20.4332 32.8 20.0332 31.7 20.4332 30.7C21.4332 29.7 21.6332 31.7 21.5332 32.5Z" fill="#232178"/>
<path fill-rule="evenodd" clip-rule="evenodd" d="M24.5333 33.2C24.9333 36.3 23.2332 39.3999 19.4332 38.0999C18.8332 37.8999 18.1332 37.2999 17.6332 36.8999C17.0332 36.3999 16.1333 35.9999 16.0333 35.5999C15.9333 35.0999 16.0333 34.3999 16.5333 34.2999C16.7333 33.9999 16.0332 33.8999 16.1332 33.3999C16.3332 33.2999 16.5332 32.8999 16.8332 32.8999C18.7332 33.1999 22.3333 33.2 24.5333 33.2ZM17.6332 34.2999C16.2332 35.6999 19.5332 37.4 21.3332 37.2C22.7332 37.1 23.3332 35.8999 23.3332 34.4999C22.0332 34.1999 19.4332 34.4999 17.6332 34.2999Z" fill="#232178"/>
<path fill-rule="evenodd" clip-rule="evenodd" d="M31.0333 28.1C31.7333 27.9 32.2333 27.6 33.0333 27.6C33.2333 25.2 33.2332 22.4 33.4332 20.1C33.9332 19.8 34.2333 19.3 34.5333 18.8C38.4333 18.7 42.3332 18.7 46.1332 18.5C49.1332 18.4 52.3332 18.1 55.4332 18.3C56.8332 18.4 58.4332 18 60.1332 17.9C62.0332 17.9 63.9332 18.3 65.4332 18.1C66.1332 18 66.7333 17.8 67.5333 18.3C67.6333 18.9 67.9332 19.2 68.3332 19.5C67.9332 22.7 67.8332 26.8 67.9332 30.3C67.9332 30.5 67.6332 30.5 67.6332 30.8C67.9332 35 66.9332 40 66.6332 44.7C66.5332 46.4 66.6332 47.8 65.9332 49.1C65.4332 49.4 65.0333 49 64.5333 49C64.1333 49.1 63.9333 49.4 63.5333 49.5C62.9333 49.3 62.4332 49.7 61.8332 49.8C61.0332 49.9 60.1332 49.6 59.1332 49.6C57.3332 49.6 55.1332 49.9 53.6332 49.9C52.8332 49.9 52.0333 49.5 51.2333 49.5C44.3333 49.1 37.0333 51.2 30.7333 49.3C30.6333 48.2 30.9332 47.2 30.8332 45.6C31.2332 45.2 31.5332 44.5 31.1332 43.8C29.7332 43.9 28.3333 44.1 27.5333 44.9C26.6333 47.6 26.5332 51.1 25.9332 54.2C23.8332 54.7 21.4332 54.6 19.1332 54.6C17.5332 54.6 15.4332 55.3 14.3332 54.3C14.6332 52.7 14.2332 50.6 14.1332 48.5C12.8332 49.3 12.9332 51.5 12.3332 53C12.0332 52.9 11.8333 52.9 11.5333 52.8C11.4333 53.3 10.5333 54.3 9.73327 54.8C8.93327 55.3 7.53322 55.9 6.43322 55.9C5.43322 55.8 3.73323 54.8 4.13323 53.4C4.53323 52.1 6.53322 51.2 7.43322 50.4C7.43322 49.8 7.73326 49.5 7.53326 48.8C8.73326 47.5 8.53322 44.9 9.93322 43.8C9.93322 43.3 9.33322 43.3 9.43322 42.7C10.9332 42.2 11.9333 41.2 13.0333 40.3C12.3333 39.3 11.4333 38.7 10.5333 37.8C9.83326 36.5 9.33325 35.1 8.83325 33.6C7.83325 33.7 7.03326 34.1 6.03326 33.9C1.93326 33.2 4.63325 24.8 8.83325 27.3C9.53325 27 9.23327 25.8 9.73327 25.3C10.0333 23.1 11.2333 21.9 12.2333 20.4C12.9333 19.8 13.6332 19.6 14.4332 19.1C15.9332 18.1 16.6332 16.1 18.9332 16C19.1332 16 19.1332 16.3 19.3332 16.4C22.3332 16.1 24.2332 17.2 25.9332 18.7C28.5332 20.9 30.5333 24.4 31.0333 28.1ZM24.0333 19.6C24.1333 19.7 24.5333 19.8 24.5333 19.6C24.4333 19.5 24.1333 19.3 24.0333 19.6ZM63.1332 19.8C63.1332 19.4 62.6333 19.5 62.2333 19.5C62.1333 20 62.7332 19.8 63.1332 19.8ZM19.2333 20.2C19.5333 20.3 19.8333 19.8 19.5333 19.6C19.4333 19.9 18.9333 20 19.2333 20.2ZM50.6332 20C50.8332 20.2 51.1332 20 51.3332 19.9C51.3332 19.7 51.2332 19.6 51.1332 19.6C51.0332 19.8 50.6332 19.8 50.6332 20ZM53.5333 19.7C53.4333 20.4 52.6333 20.4 52.5333 21.1C53.5333 20.9 53.9333 20.2 55.0333 20C54.9333 19.3 54.1333 19.8 53.5333 19.7ZM48.3332 20.2C48.6332 20.1 48.9333 20 49.0333 19.8C48.7333 19.6 48.3332 19.9 48.3332 20.2ZM34.6332 20.4C35.2332 20 36.1332 20.5 36.6332 19.9C35.9332 19.9 35.3332 19.9 34.6332 19.9C34.6332 20.1 34.6332 20.3 34.6332 20.4ZM18.2333 21.3C18.5333 21.1 18.7332 20.8 18.9332 20.5C18.5332 20.6 18.0333 21 18.2333 21.3ZM64.5333 21.6C64.8333 21.4 64.9332 21.7 65.3332 21.5C65.3332 21.1 65.5332 20.9 65.1332 20.8C65.1332 21.3 64.7333 21.3 64.5333 21.6ZM14.4332 21.5C14.6332 21.5 15.0332 21.1 14.8332 20.9C14.7332 21.1 14.5332 21.3 14.4332 21.5ZM58.6332 21.5C59.3332 21.3 60.1332 21.5 60.6332 21.3C60.1332 20.8 58.8332 20.8 58.6332 21.5ZM38.8332 21.4C38.6332 21.3 38.5332 21.1 38.3332 21C38.2332 21.3 37.9332 21.2 37.8332 21.5C38.3332 21.5 38.7332 21.5 38.8332 21.4ZM26.3332 21.5C26.4332 21.5 26.6333 21.5 26.7333 21.5C26.7333 21.3 26.6332 21.1 26.3332 21.1C26.3332 21.2 26.3332 21.4 26.3332 21.5ZM39.4332 21.6C39.9332 21.5 40.0333 21.8 40.5333 21.7C40.5333 21.5 40.5333 21.4 40.5333 21.2C40.1333 21 39.4332 21.1 39.4332 21.6ZM44.1332 21.9C44.4332 21.9 44.6332 21.9 44.9332 21.9C44.9332 21.7 45.2332 21.3 44.8332 21.3C44.6332 21.5 44.2332 21.6 44.1332 21.9ZM41.1332 21.8C41.3332 21.8 41.9333 22 42.2333 21.8C42.3333 21.1 41.2332 21.5 41.1332 21.8ZM19.0333 22.7C19.2333 22.7 19.6332 22.3 19.4332 22.1C19.3332 22.3 19.1333 22.5 19.0333 22.7ZM46.4332 23.2C42.2332 23.3 38.4332 22.3 34.3332 22.8C34.5332 24.2 34.1332 26.2 33.6332 27.8C35.9332 28.7 35.7332 33.4 33.1332 33.9C33.4332 34 33.6332 34 33.6332 34.4C35.3332 33.3 37.3332 31.7 39.9332 32.1C40.8332 30.9 40.7332 25 42.8332 26.8C42.3332 27.8 42.9333 28.5 43.2333 29.6C43.8333 31.6 44.3333 34.8 44.7333 36.6C44.8333 37.2 44.8332 37.7 44.9332 38.3C45.1332 39.2 46.2332 41.6 44.6332 41.4C43.8332 41.3 44.2332 40.3 44.1332 39.7C44.0332 38.9 43.6333 37.9 43.5333 37.2C42.6333 37.3 41.1333 37.6 40.0333 37.8C39.6333 39 39.4333 40.4 39.2333 41.8C38.7333 41.8 38.7332 42.3 38.1332 42.2C38.1332 42 37.8333 42 37.7333 41.8C37.7333 41 38.1332 40.7 38.3332 39.8C38.5332 38.9 38.6332 37.9 38.6332 37.2C37.8332 37.1 38.3332 37.9 38.3332 38.3C37.6332 38.6 37.7332 39.3 37.3332 39.9C36.5332 41.1 35.1332 41.8 34.4332 42.9C33.8332 43.2 33.0332 43.3 32.4332 43.7C32.6332 44.5 32.2332 45.3 32.6332 46C38.4332 46 44.2332 46.1 49.1332 45.4C53.2332 44.8 57.9332 44.9 62.1332 44.5C62.5332 45.2 63.2332 45.5 63.9332 45.9C65.8332 38.7 64.6333 31.5 65.2333 22.7C58.7333 22.2 52.4332 23 46.4332 23.2ZM21.1332 23.8C18.6332 26 15.9332 28.1 11.9332 28.8C11.4332 32.4 12.5332 35.9 14.6332 38C15.8332 39.3 18.7333 41.2 21.0333 40.9C22.6333 40.7 25.8333 39.2 26.7333 38.5C28.4333 37.2 29.3332 35.5 29.9332 33.4C29.9332 33.1 29.4332 33.3 29.4332 32.9C29.4332 32.5 30.0333 32.8 30.2333 32.6C30.3333 31.3 30.3332 30.4 30.1332 29.2C28.1332 28.8 26.5333 28 25.5333 26.7C25.3333 26.7 25.1332 26.9 24.9332 26.7C24.8332 26.1 24.5332 25.7 24.3332 25.5C22.9332 26.9 21.5332 28.5 19.6332 29.4C19.1332 29.2 18.9333 28.8 19.0333 28.3C19.1333 27.9 19.6333 28 20.0333 27.7C21.0333 26.9 21.3333 25.1 21.5333 23.7C21.2333 23.9 21.2332 23.7 21.1332 23.8ZM13.3332 26.1C13.1332 26.6 12.3332 26.5 12.1332 27.1C13.4332 27.4 15.3333 26.7 16.0333 25.8C15.4333 25.1 14.3332 27.4 13.3332 26.1ZM28.9332 27.8C29.2332 27.8 29.2332 28.1 29.6332 28C29.8332 27.7 29.7332 27.1 29.4332 27C29.3332 27.3 29.0332 27.4 28.9332 27.8ZM6.13323 28.9C4.43323 30.9 5.73325 33.7 8.83325 33.3C8.93325 31.9 8.83326 30.4 9.03326 28.9C8.03326 28.1 6.93323 27.9 6.13323 28.9ZM34.3332 31.1C34.5332 29.4 32.3332 28.3 31.3332 29.8C31.5332 30.7 31.2333 31.7 31.2333 32.7C32.7333 33.1 33.9332 32.3 34.3332 31.1ZM40.8332 33.4C41.2332 34.6 40.4332 35.4 40.3332 36.3C41.1332 36.3 42.7332 36.4 43.4332 36C43.0332 33.9 42.8332 31.5 41.8332 29.8C41.6332 31.1 41.6332 32.7 40.8332 33.4ZM39.7333 33.7C38.9333 32.5 37.0333 33.9 36.2333 34.3C35.5333 34.7 34.8333 34.9 34.7333 35.6C35.7333 37.7 41.1333 35.9 39.7333 33.7ZM30.9332 33.9C30.4332 35.9 29.0333 37.5 28.2333 38.9C29.6333 39.1 31.9332 39.1 32.4332 37.8C32.9332 36.6 32.1333 35.3 32.5333 34C31.9333 34 31.4332 34 30.9332 33.9ZM34.0333 37.3C34.3333 37.3 34.4332 37.1 34.4332 36.8C34.3332 36.8 34.1333 36.8 34.0333 36.8C34.0333 37 34.0333 37.1 34.0333 37.3ZM33.0333 38.8C33.6333 39.2 33.6332 38.3 34.1332 38.2C34.0332 37.9 34.1332 37.6 33.9332 37.4C33.6332 37.9 33.3333 38.3 33.0333 38.8ZM14.3332 39.5C13.9332 39.2 13.8333 38.7 13.2333 38.6C13.4333 39 13.9332 39.6 14.3332 39.5ZM26.7333 40.3C27.3333 40.2 27.4332 40.5 27.6332 40.7C28.2332 40.2 26.7333 39.4 26.7333 40.3ZM28.9332 40.5C28.9332 40.7 28.9332 41 29.1332 41C29.2332 40.7 29.4333 40.6 29.5333 40.4C29.3333 40.3 29.0332 40.3 28.9332 40.5ZM13.4332 41.9C13.8332 42.1 14.4332 41.9 14.8332 41.8C14.9332 40.8 13.5332 41.5 13.4332 41.9ZM24.5333 42.6C24.9333 42.3 24.9332 41.7 25.1332 41.3C24.4332 41.3 23.5333 42.5 24.5333 42.6ZM33.5333 42.1C33.7333 42.1 33.9332 42 33.9332 41.7C33.7332 41.7 33.5333 41.9 33.5333 42.1ZM15.8332 42.4C16.3332 42.2 16.4332 42.3 16.9332 42.2C16.7332 41.7 15.7332 41.8 15.8332 42.4ZM18.5333 42.2C18.6333 43.2 19.3333 44.4 20.0333 45.1C21.1333 44.2 22.6332 43.4 22.8332 42C21.6332 42.3 20.0333 42.2 18.5333 42.2ZM17.5333 43.6C17.6333 43.2 17.3332 43.2 17.4332 42.8C17.3332 42.8 17.2332 42.8 17.1332 42.8C17.1332 43.2 17.1333 43.6 17.5333 43.6ZM25.9332 43.4C26.0332 43.4 26.2332 43.4 26.3332 43.4C26.3332 43.1 26.3333 43 26.0333 43C25.9333 43.1 25.8332 43.2 25.9332 43.4ZM20.6332 47C21.2332 46.8 21.2332 46 21.9332 45.8C21.9332 45.1 23.1333 44.6 22.7333 44.1C22.0333 45.2 20.9332 45.7 20.6332 47ZM13.8332 46.5C14.3332 46.1 15.0332 45.3 14.8332 44.5C14.2332 44.9 13.5332 45.7 13.8332 46.5ZM57.9332 46.9C58.6332 47.2 59.3332 46.7 59.6332 46.3C59.0332 45.9 57.7332 45.9 57.9332 46.9ZM24.5333 49.9C24.3333 50 23.9332 50.8 24.3332 50.9C25.0332 49.3 25.6333 48.2 26.0333 46.4C26.0333 46.3 26.0332 46.2 25.8332 46.2C25.1332 47.1 24.8333 48.5 24.5333 49.9ZM54.6332 46.3C55.0332 46.7 54.6332 46.9 54.4332 47.2C55.2332 47 56.0333 46.8 56.5333 46.2C55.8333 46.2 55.3332 46.3 54.6332 46.3ZM50.6332 46.6C50.5332 46.9 50.8332 46.8 50.8332 47C51.1332 46.9 51.6333 47 51.7333 46.6C51.4333 46.6 51.0332 46.6 50.6332 46.6ZM32.3332 48C32.4332 47.7 32.7332 47.6 32.8332 47.2C32.6332 47.2 32.4332 47 32.1332 47.1C31.9332 47.4 32.0332 47.9 32.3332 48ZM36.4332 47.9C36.9332 47.9 37.2333 47.7 37.0333 47.3C36.9333 47.1 36.5333 47.2 36.2333 47.2C36.2333 47.5 36.4332 47.6 36.4332 47.9ZM38.6332 47.7C38.8332 47.7 39.0333 47.6 39.0333 47.3C38.8333 47.3 38.8333 47.1 38.5333 47.2C38.5333 47.5 38.6332 47.6 38.6332 47.7ZM35.1332 47.3C34.9332 47.3 34.6332 47.3 34.4332 47.3C34.3332 47.8 35.1332 47.6 35.1332 47.3ZM22.1332 48.5C22.3332 48.3 22.2332 47.9 22.4332 47.7C21.9332 47.6 21.6332 48.4 22.1332 48.5ZM15.8332 49.8C16.1332 49.3 16.0332 48.3 15.6332 47.9C15.6332 48.2 15.4332 49.5 15.8332 49.8ZM50.9332 48.3C51.0332 48.5 51.5333 48.3 51.7333 48.4C51.7333 48.2 51.7333 47.9 51.5333 47.9C51.5333 48.2 50.9332 47.9 50.9332 48.3ZM44.0333 48.6C44.3333 48.6 44.5332 48.6 44.8332 48.6C44.9332 48.3 44.9332 48.4 44.8332 48.1C44.4332 48.2 44.1333 48.2 44.0333 48.6ZM54.4332 48.5C54.7332 48.5 55.0332 48.5 55.3332 48.5C55.3332 48.4 55.3332 48.2 55.3332 48.1C54.9332 48.1 54.6332 48.3 54.4332 48.5ZM9.03326 50.5C9.43326 51.4 10.5332 51.4 11.6332 51.6C11.6332 51.4 11.8333 51.2 11.7333 50.9C11.2333 51.2 10.8333 50.8 10.7333 50.3C10.7333 50.1 11.0333 49.8 10.7333 50C10.2333 50.3 9.53326 50.4 9.03326 50.5ZM8.03326 52.3C7.63326 52.2 7.63326 51.8 7.03326 51.8C6.63326 52.5 5.13325 52.8 5.33325 54C5.63325 55.3 8.73323 54.8 9.63323 54C9.93323 53.7 10.2332 53.1 10.3332 52.6C9.63325 52.3 9.03326 52.4 8.03326 52.3ZM21.5333 53C21.7333 52.8 21.7332 52.3 21.9332 52C21.7332 51.9 21.6332 51.8 21.3332 51.8C21.1332 52.2 20.8333 53 21.5333 53Z" fill="#232178"/>
</svg>

<svg width="72" height="71" fill="none" xmlns="http://www.w3.org/2000/svg"><path fill-rule="evenodd" clip-rule="evenodd" d="M50.833 34.3c.6 1 1.7 1.4 2.4 2.4-.4 1.9-2.3 2.3-4.7 2.2-.3.2-.2.7-.6.8-.4 0-.5-.2-.8-.3-.1-.3.3-.2.3-.4-.1-.3-.4-.4-.4-.8 0-.3.4-.2.6-.3-.1-1.6.1-3-.5-4.1.3-1.2-.2-2.6-.3-3.7.3-.2.5-.3 1-.2.5.9.4 2.1.6 3.4 1.3.4 3.5.2 4.1-.7-.4-1.5-1.9-2.1-3-2.8-.2-.1-.2-.4-.4-.5-.8-.5-1.9-.4-2.2-1.4.9-1.4 3.1 1 4.1 1.7.6.4 1 .9 1.7 1.4.4.3.8.4.9 1 .2 1.3-1.1 2.1-2.8 2.3zm-2.3 3.6c1.1-.1 2.6-.1 3.3-.8-.7-1.2-1.9-1.9-3.2-2.5 0 .9-.2 2.3-.1 3.3zm12.5-7.6c-.6.1-.7-.3-1.1-.4-.7 0-1.1.4-1.8.5-.8 1.4-2.3 2.7-1.9 4.8.3 1.7 2.3 2.3 4 1.8.6.8-.9 1.2-1.7 1.3-2 .1-4-1.5-3.7-4.1.1-1.3 1.5-3.5 2.7-4.5.6-.5 1.5-.9 2.8-.8.6.3 1.4.9.7 1.4zm-45.1-1.3c.2.2.3.5.4.9-.5.2-.6.6-1.3.4-.2-.8-.1-1.5.9-1.3zm10.5 1.5c0 .5-.2.7-.5.9-.6 0-.7-.4-1-.7.2-.6 1.1-.7 1.5-.2zm-4.9 2c-1.1.3-1.5-.8-1.1-1.8 1-1 1.2 1 1.1 1.8zm3 .7c.4 3.1-1.3 6.2-5.1 4.9-.6-.2-1.3-.8-1.8-1.2-.6-.5-1.5-.9-1.6-1.3-.1-.5 0-1.2.5-1.3.2-.3-.5-.4-.4-.9.2-.1.4-.5.7-.5 1.9.3 5.5.3 7.7.3zm-6.9 1.1c-1.4 1.4 1.9 3.1 3.7 2.9 1.4-.1 2-1.3 2-2.7-1.3-.3-3.9 0-5.7-.2z" fill="#232178"/><path fill-rule="evenodd" clip-rule="evenodd" d="M31.033 28.1c.7-.2 1.2-.5 2-.5.2-2.4.2-5.2.4-7.5.5-.3.8-.8 1.1-1.3 3.9-.1 7.8-.1 11.6-.3 3-.1 6.2-.4 9.3-.2 1.4.1 3-.3 4.7-.4 1.9 0 3.8.4 5.3.2.7-.1 1.3-.3 2.1.2.1.6.4.9.8 1.2-.4 3.2-.5 7.3-.4 10.8 0 .2-.3.2-.3.5.3 4.2-.7 9.2-1 13.9-.1 1.7 0 3.1-.7 4.4-.5.3-.9-.1-1.4-.1-.4.1-.6.4-1 .5-.6-.2-1.1.2-1.7.3-.8.1-1.7-.2-2.7-.2-1.8 0-4 .3-5.5.3-.8 0-1.6-.4-2.4-.4-6.9-.4-14.2 1.7-20.5-.2-.1-1.1.2-2.1.1-3.7.4-.4.7-1.1.3-1.8-1.4.1-2.8.3-3.6 1.1-.9 2.7-1 6.2-1.6 9.3-2.1.5-4.5.4-6.8.4-1.6 0-3.7.7-4.8-.3.3-1.6-.1-3.7-.2-5.8-1.3.8-1.2 3-1.8 4.5-.3-.1-.5-.1-.8-.2-.1.5-1 1.5-1.8 2s-2.2 1.1-3.3 1.1c-1-.1-2.7-1.1-2.3-2.5.4-1.3 2.4-2.2 3.3-3 0-.6.3-.9.1-1.6 1.2-1.3 1-3.9 2.4-5 0-.5-.6-.5-.5-1.1 1.5-.5 2.5-1.5 3.6-2.4-.7-1-1.6-1.6-2.5-2.5-.7-1.3-1.2-2.7-1.7-4.2-1 .1-1.8.5-2.8.3-4.1-.7-1.4-9.1 2.8-6.6.7-.3.4-1.5.9-2 .3-2.2 1.5-3.4 2.5-4.9.7-.6 1.4-.8 2.2-1.3 1.5-1 2.2-3 4.5-3.1.2 0 .2.3.4.4 3-.3 4.9.8 6.6 2.3 2.6 2.2 4.6 5.7 5.1 9.4zm-7-8.5c.1.1.5.2.5 0-.1-.1-.4-.3-.5 0zm39.1.2c0-.4-.5-.3-.9-.3-.1.5.5.3.9.3zm-43.9.4c.3.1.6-.4.3-.6-.1.3-.6.4-.3.6zm31.4-.2c.2.2.5 0 .7-.1 0-.2-.1-.3-.2-.3-.1.2-.5.2-.5.4zm2.9-.3c-.1.7-.9.7-1 1.4 1-.2 1.4-.9 2.5-1.1-.1-.7-.9-.2-1.5-.3zm-5.2.5c.3-.1.6-.2.7-.4-.3-.2-.7.1-.7.4zm-13.7.2c.6-.4 1.5.1 2-.5h-2v.5zm-16.4.9c.3-.2.5-.5.7-.8-.4.1-.9.5-.7.8zm46.3.3c.3-.2.4.1.8-.1 0-.4.2-.6-.2-.7 0 .5-.4.5-.6.8zm-50.1-.1c.2 0 .6-.4.4-.6-.1.2-.3.4-.4.6zm44.2 0c.7-.2 1.5 0 2-.2-.5-.5-1.8-.5-2 .2zm-19.8-.1c-.2-.1-.3-.3-.5-.4-.1.3-.4.2-.5.5.5 0 .9 0 1-.1zm-12.5.1h.4c0-.2-.1-.4-.4-.4v.4zm13.1.1c.5-.1.6.2 1.1.1v-.5c-.4-.2-1.1-.1-1.1.4zm4.7.3h.8c0-.2.3-.6-.1-.6-.2.2-.6.3-.7.6zm-3-.1c.2 0 .8.2 1.1 0 .1-.7-1-.3-1.1 0zm-22.1.9c.2 0 .6-.4.4-.6-.1.2-.3.4-.4.6zm27.4.5c-4.2.1-8-.9-12.1-.4.2 1.4-.2 3.4-.7 5 2.3.9 2.1 5.6-.5 6.1.3.1.5.1.5.5 1.7-1.1 3.7-2.7 6.3-2.3.9-1.2.8-7.1 2.9-5.3-.5 1 .1 1.7.4 2.8.6 2 1.1 5.2 1.5 7 .1.6.1 1.1.2 1.7.2.9 1.3 3.3-.3 3.1-.8-.1-.4-1.1-.5-1.7-.1-.8-.5-1.8-.6-2.5-.9.1-2.4.4-3.5.6-.4 1.2-.6 2.6-.8 4-.5 0-.5.5-1.1.4 0-.2-.3-.2-.4-.4 0-.8.4-1.1.6-2 .2-.9.3-1.9.3-2.6-.8-.1-.3.7-.3 1.1-.7.3-.6 1-1 1.6-.8 1.2-2.2 1.9-2.9 3-.6.3-1.4.4-2 .8.2.8-.2 1.6.2 2.3 5.8 0 11.6.1 16.5-.6 4.1-.6 8.8-.5 13-.9.4.7 1.1 1 1.8 1.4 1.9-7.2.7-14.4 1.3-23.2-6.5-.5-12.8.3-18.8.5zm-25.3.6c-2.5 2.2-5.2 4.3-9.2 5-.5 3.6.6 7.1 2.7 9.2 1.2 1.3 4.1 3.2 6.4 2.9 1.6-.2 4.8-1.7 5.7-2.4 1.7-1.3 2.6-3 3.2-5.1 0-.3-.5-.1-.5-.5s.6-.1.8-.3c.1-1.3.1-2.2-.1-3.4-2-.4-3.6-1.2-4.6-2.5-.2 0-.4.2-.6 0-.1-.6-.4-1-.6-1.2-1.4 1.4-2.8 3-4.7 3.9-.5-.2-.7-.6-.6-1.1.1-.4.6-.3 1-.6 1-.8 1.3-2.6 1.5-4-.3.2-.3 0-.4.1zm-7.8 2.3c-.2.5-1 .4-1.2 1 1.3.3 3.2-.4 3.9-1.3-.6-.7-1.7 1.6-2.7.3zm15.6 1.7c.3 0 .3.3.7.2.2-.3.1-.9-.2-1-.1.3-.4.4-.5.8zm-22.8 1.1c-1.7 2-.4 4.8 2.7 4.4.1-1.4 0-2.9.2-4.4-1-.8-2.1-1-2.9 0zm28.2 2.2c.2-1.7-2-2.8-3-1.3.2.9-.1 1.9-.1 2.9 1.5.4 2.7-.4 3.1-1.6zm6.5 2.3c.4 1.2-.4 2-.5 2.9.8 0 2.4.1 3.1-.3-.4-2.1-.6-4.5-1.6-6.2-.2 1.3-.2 2.9-1 3.6zm-1.1.3c-.8-1.2-2.7.2-3.5.6-.7.4-1.4.6-1.5 1.3 1 2.1 6.4.3 5-1.9zm-8.8.2c-.5 2-1.9 3.6-2.7 5 1.4.2 3.7.2 4.2-1.1.5-1.2-.3-2.5.1-3.8-.6 0-1.1 0-1.6-.1zm3.1 3.4c.3 0 .4-.2.4-.5h-.4v.5zm-1 1.5c.6.4.6-.5 1.1-.6-.1-.3 0-.6-.2-.8-.3.5-.6.9-.9 1.4zm-18.7.7c-.4-.3-.5-.8-1.1-.9.2.4.7 1 1.1.9zm12.4.8c.6-.1.7.2.9.4.6-.5-.9-1.3-.9-.4zm2.2.2c0 .2 0 .5.2.5.1-.3.3-.4.4-.6-.2-.1-.5-.1-.6.1zm-15.5 1.4c.4.2 1 0 1.4-.1.1-1-1.3-.3-1.4.1zm11.1.7c.4-.3.4-.9.6-1.3-.7 0-1.6 1.2-.6 1.3zm9-.5c.2 0 .4-.1.4-.4-.2 0-.4.2-.4.4zm-17.7.3c.5-.2.6-.1 1.1-.2-.2-.5-1.2-.4-1.1.2zm2.7-.2c.1 1 .8 2.2 1.5 2.9 1.1-.9 2.6-1.7 2.8-3.1-1.2.3-2.8.2-4.3.2zm-1 1.4c.1-.4-.2-.4-.1-.8h-.3c0 .4 0 .8.4.8zm8.4-.2h.4c0-.3 0-.4-.3-.4-.1.1-.2.2-.1.4zm-5.3 3.6c.6-.2.6-1 1.3-1.2 0-.7 1.2-1.2.8-1.7-.7 1.1-1.8 1.6-2.1 2.9zm-6.8-.5c.5-.4 1.2-1.2 1-2-.6.4-1.3 1.2-1 2zm44.1.4c.7.3 1.4-.2 1.7-.6-.6-.4-1.9-.4-1.7.6zm-33.4 3c-.2.1-.6.9-.2 1 .7-1.6 1.3-2.7 1.7-4.5 0-.1 0-.2-.2-.2-.7.9-1 2.3-1.3 3.7zm30.1-3.6c.4.4 0 .6-.2.9.8-.2 1.6-.4 2.1-1-.7 0-1.2.1-1.9.1zm-4 .3c-.1.3.2.2.2.4.3-.1.8 0 .9-.4h-1.1zm-18.3 1.4c.1-.3.4-.4.5-.8-.2 0-.4-.2-.7-.1-.2.3-.1.8.2.9zm4.1-.1c.5 0 .8-.2.6-.6-.1-.2-.5-.1-.8-.1 0 .3.2.4.2.7zm2.2-.2c.2 0 .4-.1.4-.4-.2 0-.2-.2-.5-.1 0 .3.1.4.1.5zm-3.5-.4h-.7c-.1.5.7.3.7 0zm-13 1.2c.2-.2.1-.6.3-.8-.5-.1-.8.7-.3.8zm-6.3 1.3c.3-.5.2-1.5-.2-1.9 0 .3-.2 1.6.2 1.9zm35.1-1.5c.1.2.6 0 .8.1 0-.2 0-.5-.2-.5 0 .3-.6 0-.6.4zm-6.9.3h.8c.1-.3.1-.2 0-.5-.4.1-.7.1-.8.5zm10.4-.1h.9v-.4c-.4 0-.7.2-.9.4zm-45.4 2c.4.9 1.5.9 2.6 1.1 0-.2.2-.4.1-.7-.5.3-.9-.1-1-.6 0-.2.3-.5 0-.3-.5.3-1.2.4-1.7.5zm-1 1.8c-.4-.1-.4-.5-1-.5-.4.7-1.9 1-1.7 2.2.3 1.3 3.4.8 4.3 0 .3-.3.6-.9.7-1.4-.7-.3-1.3-.2-2.3-.3zm13.5.7c.2-.2.2-.7.4-1-.2-.1-.3-.2-.6-.2-.2.4-.5 1.2.2 1.2z" fill="#232178"/></svg>
